image/arrow.svg

<svg fill="none" height="17" viewBox="0 0 9 17" width="9" xmlns="http://www.w3.org/2000/svg"><path clip-rule="evenodd" d="m.183058 16.0669c-.2440774-.244-.2440774-.6398 0-.8838l7.058062-7.0581-7.05806-7.05806c-.2440775-.244076-.2440775-.639803 0-.883882.244078-.2440774.639806-.2440773.88388 0l7.5 7.500002c.24408.24408.24408.63981 0 .88388l-7.5 7.49996c-.244076.2441-.639804.2441-.883882 0z" fill="#fa4549" fill-rule="evenodd"/></svg>

<svg width="9" height="17" viewBox="0 0 9 17" fill="none" xmlns="http://www.w3.org/2000/svg">
<path fill-rule="evenodd" clip-rule="evenodd" d="M0.183058 16.0669C-0.0610194 15.8229 -0.0610194 15.4271 0.183058 15.1831L7.24112 8.125L0.18306 1.06694C-0.0610175 0.822864 -0.0610175 0.427137 0.18306 0.183058C0.427138 -0.0610194 0.822866 -0.0610193 1.06694 0.183058L8.56694 7.68306C8.81102 7.92714 8.81102 8.32287 8.56694 8.56694L1.06694 16.0669C0.822864 16.311 0.427136 16.311 0.183058 16.0669Z" fill="#FA4549"/>
</svg>
